resources/haticons/SVG/content_copy.svg

<!-- Generated by IcoMoon.io -->
<svg version="1.1" xmlns="http://www.w3.org/2000/svg" width="24" height="24" viewBox="0 0 24 24">
<title>content_copy</title>
<path d="M18.984 21v-14.016h-10.969v14.016h10.969zM18.984 5.016q0.797 0 1.406 0.586t0.609 1.383v14.016q0 0.797-0.609 1.406t-1.406 0.609h-10.969q-0.797 0-1.406-0.609t-0.609-1.406v-14.016q0-0.797 0.609-1.383t1.406-0.586h10.969zM15.984 0.984v2.016h-12v14.016h-1.969v-14.016q0-0.797 0.586-1.406t1.383-0.609h12z"></path>
</svg>

<svg xmlns="http://www.w3.org/2000/svg" width="24" height="24"><path d="M18.984 21V6.984H8.015V21h10.969zm0-15.984q.797 0 1.406.586t.609 1.383v14.016q0 .797-.609 1.406t-1.406.609H8.015q-.797 0-1.406-.609T6 21.001V6.985q0-.797.609-1.383t1.406-.586h10.969zm-3-4.032V3h-12v14.016H2.015V3q0-.797.586-1.406T3.984.985h12z"/></svg>
